dist/assets/img/footer/youtube.svg

<svg width="50" height="50" viewBox="0 0 50 50" fill="none" xmlns="http://www.w3.org/2000/svg">
<g clip-path="url(#clip0)">
<path d="M45.0905 43.9655H4.90948C2.19828 43.9655 0 41.7672 0 39.056V10.9439C0 8.2327 2.19828 6.03442 4.90948 6.03442H45.0905C47.8017 6.03442 50 8.2327 50 10.9439V39.056C50 41.7672 47.8017 43.9655 45.0905 43.9655Z" fill="#DD352E"/>
<path d="M18.1035 34.0774V15.9223C18.1035 14.9818 19.1267 14.3973 19.9371 14.8757L35.2991 23.9533C36.0948 24.424 36.0948 25.5757 35.2991 26.0456L19.9371 35.1231C19.1267 35.6025 18.1035 35.018 18.1035 34.0774Z" fill="white"/>
</g>
<defs>
<clipPath id="clip0">
<rect width="50" height="50" fill="white"/>
</clipPath>
</defs>
</svg>

<svg width="50" height="50" fill="none" xmlns="http://www.w3.org/2000/svg"><g clip-path="url(#clip0)"><path d="M45.09 43.965H4.91A4.91 4.91 0 010 39.056V10.944a4.91 4.91 0 014.91-4.91h40.18a4.91 4.91 0 014.91 4.91v28.112a4.91 4.91 0 01-4.91 4.91z" fill="#DD352E"/><path d="M18.104 34.077V15.922c0-.94 1.023-1.525 1.833-1.046L35.3 23.953a1.216 1.216 0 010 2.093l-15.362 9.077a1.215 1.215 0 01-1.834-1.046z" fill="#fff"/></g><defs><clipPath id="clip0"><path fill="#fff" d="M0 0h50v50H0z"/></clipPath></defs></svg>
